X:362
T: Caiquange
N: C1863
O: China, Jiangxi Jian
S: IV, 227]
R: Xiaodiao]
M: 2/4
L: 1/16
K: Bb
b2b2b2c2 | d2c2d4 | c2b2d2c2 | b8
c2b2d2c2 | b2cbg4
f2f2f2b2 | g2g4b2 | c2b4c2 | d2c2d4 | c2bcd2c2 | b8
c2bcd2c2 | b2c2g4 | f2f2f2b2 | g8
f2f2f2b2 | g2g4b2 | f2f2f2b2 | g2g4b2
c2b4c2 | d2c2d4 | c2bcd2c2 | b8
c2bcd2c2 | b2c2g4
f2f2f2b2 | g6b2 | f2f2f2b2 | g8

